X: 10
M: C|
L: 1/8
K: G
d>gf>e d>cB>A | G>BD>G B2A>G |\
d>gf>e d>cB>A | G>BD>G B2A>G |\
|: A>G |\
d>gf>e d>cB>A | G>BD>G B2A>G |\

